X:1
T:I Want A Girl Just Like The Girl
T:I Want A Girl Just Like The Girl
C:Harry Tilzer
Z:All Rights Reserved
L:1/8
M:2/4
K:C
V:1 treble nm="Piano" snm="Pno."
%%MIDI program 0
V:1
"C" GE"G7" F"Cdim"^F |"C" Ge"Cdim" cA |"G7" B^A BA | B3 d | AA AA | A3"Cdim" c |"C" GG"Gdim" GG | %7
w: When I was a|boy my moth- er|of- ten said to|me, Get|mar- ried boy and|see, how|hap- py you will|
"G7" G3 z |"C" GE"G7" F"Cdim"^F |"C" Ge"Cm" cA |"G" BA B"D7"c |"G" d3 d |"D7" dc ^GA | %13
w: be.|I have looked all|ov- er, but no|gir- lie can I|find, Who|seems to be just|
"G" ed"E" ^A"E7"B |"Am" dc"D7" Ad |"G" G3 z |"G7" GG"Bb7" ^GG |"Dm" AA"Bb7" ^AA |"G7" BB"Dm7" cc | %19
w: like the lit- tle|girl I have in|mind,|I will have to|look a- round un-|til the right one|
"C#dim" ^cc"G7" d2 |:"C" G4 | E"Bdim"F"C7" G2 |"F" c4 | AB c"D7b5"d |"C/G" e2"Am7" c2 | %25
w: I have found.|I|want a girl,|just|like the girl that|mar- ried|
"D7" e2"G7" d2 |"C" c4- |"G7" c3"C7" z |"F" A4 |"Cdim" cB c2 |"C" G3 A |"A7" GF EG |"D7" A2 d2 | %33
w: dear old|Dad,|_|She|was a pearl|and the|on- ly girl that|Dad- dy|
 d2"D9" e2 |"G7""Dm" d4- |"G7" d3"G+7" ^d |"C" e2"C/G" e2 |"C" ed ce |"G7" d2 d2 | d3"Dm" z | %40
w: ev- er|had,|_ A|good old|fash- ioned girl with|heart so|true,|
"Am" c2 c2 |"F7" cB Ac |"E7" B2 B2 |"G7" B3"Ddim" z |"C" G4 | EF"C7" G2 |"F" c4 | AB c"D7"d | %48
w: One who|loves no- bod- y|else but|you,|I|want a girl|just|like the girl that|
"C" e2 c2 |"D7" e2"G7" d2 |1"C" c4- ||"G7" c3"Ddim" z :|2"C" c4- || c3 z |] %54
w: mar- ried|dear old|Dad.|_|Dad.|_|

